assets/img/logo-iso.svg

<svg height="111.93" width="120" xmlns="http://www.w3.org/2000/svg"><g fill="#2a3e92" transform="matrix(1.25 0 0 -1.25 -250.66449375 478.0643375)"><path d="m273.46432 342.84535c.5381-.82503.50238-1.90125.60993-2.86995-.0361-2.04474.14327-4.48412-.21548-6.56512-.17935-.86079-.7532-1.75767-1.65005-2.08065-1.43497-.64569-3.37239-.46629-4.69944.28693-1.11232.7893-1.2556 2.11672-1.39925 3.37235-.10755 2.47547-.28692 5.09422.39448 7.35422.53812 1.39909 2.00919 1.75782 3.33662 1.86555 1.39889 0 2.76204-.21528 3.62319-1.36333z"/><path d="m208.53161 300.90819v73.54256h79.99997v-73.54256zm42.18818 64.75332c-.96834.10757-2.15229.14347-3.19262.03592-.39465.0359-.86115 0-1.32742-.03592-8.60985-.68158-16.53814-5.16588-21.48876-12.80722.35875.03588.78915-.10755 1.14788.03588.86115 1.21972 1.82964 2.40367 2.90589 3.55154.93275.89685 1.7937 1.758 2.79828 2.40365.9326-.60992 1.9731-1.11212 2.86995-1.68615-1.11213-1.39909-2.26018-2.79812-3.08521-4.30492.25098-.10755.71748-.07167 1.07623 0 .89685 1.32742 1.86537 2.65485 3.01342 3.83862 1.54253-.574 3.04932-1.18377 4.62775-1.61435 0 0 .14347-.14347.14347-.14347s-.89685-2.0808-.89685-2.0808c.39463-.07167.64583-.03573 1.0405 0 .32281.60993.57383 1.29148.93258 1.90143 2.0808-.46646 4.26919-.7175 6.49332-.7893.28707-.25101.07182-.78913.17937-1.11213h.96867c.10755.35873-.03592.75338.10755 1.07622 2.08081.10771 4.26903.32303 6.27822.82521 0 0 .17938-.0359.17938-.0359s.9683-1.86553.9683-1.86553c.32302 0 .75357-.07167 1.00477.07182 0 0-.89685 2.08063-.89685 2.08063s.07145.07182.07145.07182c1.65045.43058 3.19297 1.07623 4.77158 1.7219 1.11197-1.18377 2.15247-2.58287 3.08504-3.94617.39448 0 .78933-.03573 1.07625.07182-.43057.7893-.9687 1.57841-1.54252 2.26-.4663.68175-.9687 1.29153-1.57863 1.93738v.17935l2.5112 1.4707s.35875.14365.35875.14365c2.18855-1.68615 4.12559-3.73108 5.6681-5.99108.43057 0 .78932-.14349 1.14807.03588-4.80699 7.31835-12.73544 12.01794-21.30923 12.69952 0 0-.03605-.07181-.03605-.07181s-.07183.07181-.07183.07181zm3.69535-1.61435v-.0718c-3.12117-2.29593-8.17947-2.51123-11.47999-.3945-.17938.14347-.53815.21512-.57405.4663 3.80275.89685 8.28722.96867 12.05404 0zm9.86544-4.37675s-.0718-.14345-.0718-.14345l-2.47549-1.39907h-.17936c-1.90127 1.93719-4.12557 3.62337-6.38557 4.95057.07183.2512.43058.43057.68175.60995 3.01323-.7893 5.84745-2.15245 8.43047-4.018zm-22.60105 3.40805c-2.2241-1.39903-4.41247-3.0493-6.42147-5.05812-.96868.35875-1.86553.89685-2.7265 1.50662v.07182c2.26018 1.68598 4.77142 2.94158 7.42607 3.8027.10755.10755.17937.2151.32285.2151v-.07162c.28692-.07183.50218.25102.75337.0359.2153-.17938.4663-.32302.64568-.5024zm18.83425-5.41687s-.07182-.10771-.07182-.10771c-1.39925-.60977-2.83422-1.18381-4.37675-1.50664-1.11195 1.90127-2.33182 3.80255-3.69501 5.63219.50206.28708 1.11199.50218 1.65011.7893 2.33183-1.18397 4.59185-2.86995 6.49347-4.80714zm-16.14366 4.08967s-.10757-.28713-.10757-.28713c-1.36332-1.72189-2.43955-3.58744-3.51577-5.41689 0 0-.1435-.03592-.1435-.03592-1.47085.39467-2.90583.86097-4.26898 1.47089 0 0 .07178.2151.07178.2151 1.97312 1.90147 4.05377 3.4799 6.34969 4.6996.53813-.2153 1.07625-.39467 1.61435-.64565zm3.4799-.6816c.10755-1.86555.03588-4.018.03588-5.9911-1.00456-.14347-1.90143.03591-2.90583.10755-.96867.14365-2.18839.2512-3.15707.57401 1.0405 1.97312 2.26018 3.87457 3.73107 5.63239 0 0 2.29595-.32285 2.29595-.32285zm3.37213.28692c1.39924-1.79372 2.76239-3.62334 3.69501-5.59646-1.93702-.46628-3.91011-.71748-5.91929-.71748-.07163 1.90147-.03572 4.01802 0 5.99112.71748.10755 1.5068.21527 2.22428.32282zm-2.90583-12.19729c-3.9462 1.68618-9.47082 1.86555-13.05826-.75342-2.33187-1.72187-3.04935-4.80712-2.43942-7.53359.4663-2.58287 2.90572-4.48415 5.23754-5.381 3.19297-1.14805 6.52922-1.97312 9.75792-3.08542.32284-.1433.7534-.46628.68157-.8608 0-.32298-.32285-.50235-.57402-.64598-3.37215-.93262-7.03125-.21514-9.47082 2.36793-.28692.35872-.4663.78928-.75338 1.148 0 0-4.84304-.03605-4.84304-.03605-.07165-2.90572-.10757-6.24195 0-9.11189 0 0 5.38114.03572 5.38114.03572s.07183 1.7219.07183 1.7219c.60995-.28692 1.21968-.64567 1.82962-.9687 3.7309-1.57825 8.53805-1.93697 12.2332 0 2.69061 1.5068 4.12559 4.41285 3.73074 7.53367-.39445 3.0493-3.2644 5.81172-6.17012 6.56512 0 0-8.68167 2.5471-8.68167 2.5471s-.64587.32285-.64587.32285c-.2869.25119-.46628.57402-.39463.96867.68175 1.1838 2.26018.82505 3.444.78912 2.5112-.35874 5.09422-1.21967 6.5651-3.55152 1.57827 0 3.40805-.03592 5.12999.0359.07182 2.94178-.03573 5.52465-.07183 8.5023-1.61435.03577-3.58744.03577-5.20181-.0359-.07178-.43056.07182-1.04033-.10755-1.47086 0 0-1.65023.89685-1.65023.89685zm30.4216-1.14805c-4.66367 3.0136-11.76674 3.2287-16.57406.50236-2.61875-1.36333-4.34065-4.0539-4.87877-6.81612-.96868-4.55612-.71748-9.97304 2.72632-13.38109 4.018-3.58745 9.86546-4.37675 15.06726-2.90605.24663.0494 1.03138.2512 1.56948.54268 0 0 .1524.06725.1524.06725 1.61434.68177 3.15687 1.79372 4.30492 3.30052 2.65485 3.94622 2.83422 9.86549 1.21987 14.31388-.64565 1.7219-1.97307 3.26458-3.58742 4.37657zm-60.95077 2.15248s-2.22412-.03577-2.22412-.03577c-.03593-1.90143-.03593-4.12555 0-6.06292 1.21967-.03573 2.36772 0 3.55154-.10755v-12.19727l-.03592-.5024s-3.55155-.07147-3.55155-.07147c-.07178-2.00916-.07178-3.9462 0-5.91927h15.82068v5.91927c-1.18399.07147-2.51119-.03608-3.65927.10755 0 0 .03591 12.59176.03591 12.59176l.07182.10775s3.55154.0359 3.55154.0359c.03588 2.04475.07163 4.23314-.03592 6.09865 0 0-13.52471.03577-13.52471.03577zm22.74453-27.5515c-.35875 0-.75343.07182-1.00462-.03573 0 0 .89685-2.11674.89685-2.11674s-.10753-.10755-.10753-.10755c-1.61435-.46665-3.19278-1.0405-4.7355-1.68618 0 0-.14345.07183-.14345.07183-1.00444 1.11197-1.97312 2.33184-2.76242 3.55134-.17937.60995-.89687.2512-1.29135.32303.86098-1.57825 2.00887-2.9775 3.15688-4.41247-.96863-.57387-1.93716-1.21988-2.94178-1.68618-2.15245 1.65041-4.16127 3.8029-5.66807 6.06292-.43055.07145-.71747.03573-1.14805 0 2.58303-4.08982 6.60102-7.67727 10.79824-9.79366 0 0 0 .03573.03593.03573.0359 0 .10755-.07183.0359-.10788 2.83404-1.39892 5.84744-2.40332 9.04024-2.8339 11.01354-1.47103 21.52463 3.30052 27.62332 12.69971-.32265.03573-.78932.03573-1.14807 0-1.50645-2.18857-3.40809-4.30529-5.48872-5.95537-.07182-.10755-.28692-.07149-.35875.03573-.89685.5742-1.86555 1.0405-2.7263 1.61435 1.14805 1.39925 2.26 2.79849 3.12113 4.34102h-1.11233c-.89685-1.32743-1.82942-2.72667-3.01322-3.91012-1.5786.64532-3.01358 1.21954-4.62792 1.6501 0 0-.17938.14365-.17938.14365.2512.71749.71748 1.39887.86113 2.11637h-.96868s-.96867-1.937-.96867-1.937c-2.11675.46593-4.44857.71748-6.60087.86075-.10775.32303.0359.78932-.10775 1.07625h-.9326c-.07182-.43057.10755-.75322-.1077-1.11233-2.22412-.10719-4.37659-.35874-6.45742-.78894 0 0-.96847 1.90127-.96847 1.90127zm7.53359-8.25112c-.75337-.17935-1.5786-.17935-2.2961-.35873-1.4707 1.75763-2.69057 3.65925-3.73092 5.63235 0 0 .17938.14365.17938.14365 1.86555.35873 3.80274.64528 5.81176.64528 0 0 .03588-6.06255.03588-6.06255zm7.06737 5.34507s.03572-.10717.03572-.10717c-1.00444-1.93738-2.26004-3.80292-3.62319-5.56057-.60995-.07215-1.18413.17937-1.79372.2151 0 0-.60993.07149-.60993.07149-.07182 2.11673-.10773 3.98228 0 6.09863 2.0449-.03573 4.08947-.25083 5.99112-.71748zm-14.17061-.32265c1.04035-1.9731 2.33187-3.83862 3.62337-5.70384-.50222-.28725-1.11213-.46663-1.61435-.75357-2.36777 1.18381-4.62777 2.83389-6.5292 4.80696v.10793c1.39925.68173 2.86995 1.18377 4.37673 1.57862 0 0 .14345-.0361.14345-.0361zm19.73113-1.5068c-1.14805-1.32709-2.61912-2.47547-3.98227-3.44382-.82505-.50235-1.65008-1.04047-2.5112-1.4707 0 0-1.54253.68143-1.54253.68143s.10755.25115.10755.25115c1.2917 1.758 2.43938 3.55172 3.44415 5.45264 0 0 .10755.0722.10755.0722 1.54253-.35877 3.01323-.86115 4.37675-1.5429zm3.83825-2.04457c-2.0088-1.61435-4.34065-2.69057-6.7082-3.58744 0 0-1.68617-.53811-1.68617-.53811-.28693.14328-.5381.35873-.7893.57383 0 0 .07182.10755.07182.10755 2.29573 1.3632 4.37675 3.01327 6.34982 4.98634.96833-.39445 1.90128-.93257 2.76203-1.54217zm-22.74413-3.55172c-.17938-.2151-.4665-.43055-.7175-.57383-3.0136.78898-5.81172 2.15245-8.39477 4.01767v.10788c.86113.5381 1.7221 1.112 2.65485 1.50645 2.04475-2.04457 4.16129-3.58742 6.45742-5.05817zm12.84296-.82535c.10755-.21515-.17937-.14332-.25118-.21515-3.80257-.82502-8.03584-.8611-11.83858.07183-.07165.17937.17937.21547.2871.32267 3.33627 2.18857 8.53822 2.18857 11.80266-.17935z"/></g><path d="m15.39648 11.3614675h89.20704875v89.20704875h-89.20704875z" fill="none"/></svg>

<?xml version="1.0" encoding="UTF-8" standalone="no"?>
<!-- Created with Inkscape (http://www.inkscape.org/) -->
<svg
   xmlns:dc="http://purl.org/dc/elements/1.1/"
   xmlns:cc="http://creativecommons.org/ns#"
   xmlns:rdf="http://www.w3.org/1999/02/22-rdf-syntax-ns#"
   xmlns:svg="http://www.w3.org/2000/svg"
   xmlns="http://www.w3.org/2000/svg"
   xmlns:sodipodi="http://sodipodi.sourceforge.net/DTD/sodipodi-0.dtd"
   xmlns:inkscape="http://www.inkscape.org/namespaces/inkscape"
   id="svg2"
   sodipodi:version="0.32"
   inkscape:version="0.46"
   width="120"
   height="111.93"
   xml:space="preserve"
   sodipodi:docname="Logo der ISO.svg"
   version="1.0"
   inkscape:output_extension="org.inkscape.output.svg.inkscape"><metadata
     id="metadata7"><rdf:RDF><cc:Work
         rdf:about=""><dc:format>image/svg+xml</dc:format><dc:type
           rdf:resource="http://purl.org/dc/dcmitype/StillImage" /></cc:Work></rdf:RDF></metadata><defs
     id="defs5"><inkscape:perspective
       sodipodi:type="inkscape:persp3d"
       inkscape:vp_x="0 : 526.18109 : 1"
       inkscape:vp_y="0 : 1000 : 0"
       inkscape:vp_z="744.09448 : 526.18109 : 1"
       inkscape:persp3d-origin="372.04724 : 350.78739 : 1"
       id="perspective9" /><clipPath
       clipPathUnits="userSpaceOnUse"
       id="clipPath17"><path
         d="M 0,0 L 595.27559,0 L 595.27559,841.88977 L 0,841.88977 L 0,0 z"
         id="path19" /></clipPath><clipPath
       clipPathUnits="userSpaceOnUse"
       id="clipPath25"><path
         d="M -169.91499,-113.755 L -169.91499,83.51878 L 102.97067,83.51878 L 102.97067,-113.755 L -169.91499,-113.755 z"
         id="path27" /></clipPath></defs><sodipodi:namedview
     inkscape:window-height="667"
     inkscape:window-width="872"
     inkscape:pageshadow="2"
     inkscape:pageopacity="0.0"
     guidetolerance="10.0"
     gridtolerance="10.0"
     objecttolerance="10.0"
     borderopacity="1.0"
     bordercolor="#666666"
     pagecolor="#ffffff"
     id="base"
     showgrid="false"
     inkscape:zoom="1.17"
     inkscape:cx="-88.803419"
     inkscape:cy="74.121048"
     inkscape:window-x="88"
     inkscape:window-y="146"
     inkscape:current-layer="g11" /><g
     id="g11"
     inkscape:groupmode="layer"
     inkscape:label="codeethics_2004"
     transform="matrix(1.25,0,0,-1.25,-260.66452,468.06343)"><g
       id="g2537"
       transform="translate(8.0000213,-8.0007263)"><path
         d="M 273.46432,342.84535 C 274.00242,342.02032 273.9667,340.9441 274.07425,339.9754 C 274.03815,337.93066 274.21752,335.49128 273.85877,333.41028 C 273.67942,332.54949 273.10557,331.65261 272.20872,331.32963 C 270.77375,330.68394 268.83633,330.86334 267.50928,331.61656 C 266.39696,332.40586 266.25368,333.73328 266.11003,334.98891 C 266.00248,337.46438 265.82311,340.08313 266.50451,342.34313 C 267.04263,343.74222 268.5137,344.10095 269.84113,344.20868 C 271.24002,344.20868 272.60317,343.9934 273.46432,342.84535 z"
         style="fill:#2a3e92;fill-opacity:1;fill-rule:nonzero;stroke:none"
         id="path45" /><path
         d="M 208.53161,300.90819 L 208.53161,374.45075 L 288.53158,374.45075 L 288.53158,300.90819 L 208.53161,300.90819 z M 250.71979,365.66151 C 249.75145,365.76908 248.5675,365.80498 247.52717,365.69743 C 247.13252,365.73333 246.66602,365.69743 246.19975,365.66151 C 237.5899,364.97993 229.66161,360.49563 224.71099,352.85429 C 225.06974,352.89017 225.50014,352.74674 225.85887,352.89017 C 226.72002,354.10989 227.68851,355.29384 228.76476,356.44171 C 229.69751,357.33856 230.55846,358.19971 231.56304,358.84536 C 232.49564,358.23544 233.53614,357.73324 234.43299,357.15921 C 233.32086,355.76012 232.17281,354.36109 231.34778,352.85429 C 231.59876,352.74674 232.06526,352.78262 232.42401,352.85429 C 233.32086,354.18171 234.28938,355.50914 235.43743,356.69291 C 236.97996,356.11891 238.48675,355.50914 240.06518,355.07856 C 240.06518,355.07856 240.20865,354.93509 240.20865,354.93509 C 240.20865,354.93509 239.3118,352.85429 239.3118,352.85429 C 239.70643,352.78262 239.95763,352.81856 240.3523,352.85429 C 240.67511,353.46422 240.92613,354.14577 241.28488,354.75572 C 243.36568,354.28926 245.55407,354.03822 247.7782,353.96642 C 248.06527,353.71541 247.85002,353.17729 247.95757,352.85429 C 247.95757,352.85429 248.92624,352.85429 248.92624,352.85429 C 249.03379,353.21302 248.89032,353.60767 249.03379,353.93051 C 251.1146,354.03822 253.30282,354.25354 255.31201,354.75572 C 255.31201,354.75572 255.49139,354.71982 255.49139,354.71982 C 255.49139,354.71982 256.45969,352.85429 256.45969,352.85429 C 256.78271,352.85429 257.21326,352.78262 257.46446,352.92611 C 257.46446,352.92611 256.56761,355.00674 256.56761,355.00674 C 256.56761,355.00674 256.63906,355.07856 256.63906,355.07856 C 258.28951,355.50914 259.83203,356.15479 261.41064,356.80046 C 262.52261,355.61669 263.56311,354.21759 264.49568,352.85429 C 264.89016,352.85429 265.28501,352.81856 265.57193,352.92611 C 265.14136,353.71541 264.60323,354.50452 264.02941,355.18611 C 263.56311,355.86786 263.06071,356.47764 262.45078,357.12349 C 262.45078,357.12349 262.45078,357.30284 262.45078,357.30284 L 264.96198,358.77354 C 264.96198,358.77354 265.32073,358.91719 265.32073,358.91719 C 267.50928,357.23104 269.44632,355.18611 270.98883,352.92611 C 271.4194,352.92611 271.77815,352.78262 272.1369,352.96199 C 267.32991,360.28034 259.40146,364.97993 250.82767,365.66151 C 250.82767,365.66151 250.79162,365.5897 250.79162,365.5897 C 250.79162,365.5897 250.71979,365.66151 250.71979,365.66151 z M 254.41514,364.04716 C 254.41514,364.04716 254.41514,363.97536 254.41514,363.97536 C 251.29397,361.67943 246.23567,361.46413 242.93515,363.58086 C 242.75577,363.72433 242.397,363.79598 242.3611,364.04716 C 246.16385,364.94401 250.64832,365.01583 254.41514,364.04716 z M 264.28058,359.67041 C 264.28058,359.67041 264.20878,359.52696 264.20878,359.52696 L 261.73329,358.12789 C 261.73329,358.12789 261.55393,358.12789 261.55393,358.12789 C 259.65266,360.06508 257.42836,361.75126 255.16836,363.07846 C 255.24019,363.32966 255.59894,363.50903 255.85011,363.68841 C 258.86334,362.89911 261.69756,361.53596 264.28058,359.67041 z M 241.67953,363.07846 C 239.45543,361.67943 237.26706,360.02916 235.25806,358.02034 C 234.28938,358.37909 233.39253,358.91719 232.53156,359.52696 C 232.53156,359.52696 232.53156,359.59878 232.53156,359.59878 C 234.79174,361.28476 237.30298,362.54036 239.95763,363.40148 C 240.06518,363.50903 240.137,363.61658 240.28048,363.61658 C 240.28048,363.61658 240.28048,363.54496 240.28048,363.54496 C 240.5674,363.47313 240.78266,363.79598 241.03385,363.58086 C 241.24915,363.40148 241.50015,363.25784 241.67953,363.07846 z M 260.51378,357.66159 C 260.51378,357.66159 260.44196,357.55388 260.44196,357.55388 C 259.04271,356.94411 257.60774,356.37007 256.06521,356.04724 C 254.95326,357.94851 253.73339,359.84979 252.3702,361.67943 C 252.87226,361.96651 253.48219,362.18161 254.02031,362.46873 C 256.35214,361.28476 258.61216,359.59878 260.51378,357.66159 z M 244.37012,361.75126 C 244.37012,361.75126 244.26255,361.46413 244.26255,361.46413 C 242.89923,359.74224 241.823,357.87669 240.74678,356.04724 C 240.74678,356.04724 240.60328,356.01132 240.60328,356.01132 C 239.13243,356.40599 237.69745,356.87229 236.3343,357.48221 C 236.3343,357.48221 236.40608,357.69731 236.40608,357.69731 C 238.3792,359.59878 240.45985,361.17721 242.75577,362.39691 C 243.2939,362.18161 243.83202,362.00224 244.37012,361.75126 z M 247.85002,361.06966 C 247.95757,359.20411 247.8859,357.05166 247.8859,355.07856 C 246.88134,354.93509 245.98447,355.11447 244.98007,355.18611 C 244.0114,355.32976 242.79168,355.43731 241.823,355.76012 C 242.8635,357.73324 244.08318,359.63469 245.55407,361.39251 C 245.55407,361.39251 247.85002,361.06966 247.85002,361.06966 z M 251.22215,361.35658 C 252.62139,359.56286 253.98454,357.73324 254.91716,355.76012 C 252.98014,355.29384 251.00705,355.04264 248.99787,355.04264 C 248.92624,356.94411 248.96215,359.06066 248.99787,361.03376 C 249.71535,361.14131 250.50467,361.24903 251.22215,361.35658 z M 248.31632,349.15929 C 244.37012,350.84547 238.8455,351.02484 235.25806,348.40587 C 232.92619,346.684 232.20871,343.59875 232.81864,340.87228 C 233.28494,338.28941 235.72436,336.38813 238.05618,335.49128 C 241.24915,334.34323 244.5854,333.51816 247.8141,332.40586 C 248.13694,332.26256 248.5675,331.93958 248.49567,331.54506 C 248.49567,331.22208 248.17282,331.04271 247.92165,330.89908 C 244.5495,329.96646 240.8904,330.68394 238.45083,333.26701 C 238.16391,333.62573 237.98453,334.05629 237.69745,334.41501 C 237.69745,334.41501 232.85441,334.37896 232.85441,334.37896 C 232.78276,331.47324 232.74684,328.13701 232.85441,325.26707 C 232.85441,325.26707 238.23555,325.30279 238.23555,325.30279 C 238.23555,325.30279 238.30738,327.02469 238.30738,327.02469 C 238.91733,326.73777 239.52706,326.37902 240.137,326.05599 C 243.8679,324.47774 248.67505,324.11902 252.3702,326.05599 C 255.06081,327.56279 256.49579,330.46884 256.10094,333.58966 C 255.70649,336.63896 252.83654,339.40138 249.93082,340.15478 C 249.93082,340.15478 241.24915,342.70188 241.24915,342.70188 C 241.24915,342.70188 240.60328,343.02473 240.60328,343.02473 C 240.31638,343.27592 240.137,343.59875 240.20865,343.9934 C 240.8904,345.1772 242.46883,344.81845 243.65265,344.78252 C 246.16385,344.42378 248.74687,343.56285 250.21775,341.231 C 251.79602,341.231 253.6258,341.19508 255.34774,341.2669 C 255.41956,344.20868 255.31201,346.79155 255.27591,349.7692 C 253.66156,349.80497 251.68847,349.80497 250.0741,349.7333 C 250.00232,349.30274 250.14592,348.69297 249.96655,348.26244 C 249.96655,348.26244 248.31632,349.15929 248.31632,349.15929 z M 278.73792,348.01124 C 274.07425,351.02484 266.97118,351.23994 262.16386,348.5136 C 259.54511,347.15027 257.82321,344.4597 257.28509,341.69748 C 256.31641,337.14136 256.56761,331.72444 260.01141,328.31639 C 264.02941,324.72894 269.87687,323.93964 275.07867,325.41034 C 275.3253,325.45974 276.11005,325.66154 276.64815,325.95302 C 276.64815,325.95302 276.80055,326.02027 276.80055,326.02027 C 278.41489,326.70204 279.95742,327.81399 281.10547,329.32079 C 283.76032,333.26701 283.93969,339.18628 282.32534,343.63467 C 281.67969,345.35657 280.35227,346.89925 278.73792,348.01124 z M 217.78715,350.16372 C 217.78715,350.16372 215.56303,350.12795 215.56303,350.12795 C 215.5271,348.22652 215.5271,346.0024 215.56303,344.06503 C 216.7827,344.0293 217.93075,344.06503 219.11457,343.95748 C 219.11457,343.95748 219.11457,331.76021 219.11457,331.76021 L 219.07865,331.25781 C 219.07865,331.25781 215.5271,331.18634 215.5271,331.18634 C 215.45532,329.17718 215.45532,327.24014 215.5271,325.26707 C 215.5271,325.26707 231.34778,325.26707 231.34778,325.26707 C 231.34778,325.26707 231.34778,331.18634 231.34778,331.18634 C 230.16379,331.25781 228.83659,331.15026 227.68851,331.29389 C 227.68851,331.29389 227.72442,343.88565 227.72442,343.88565 L 227.79624,343.9934 C 227.79624,343.9934 231.34778,344.0293 231.34778,344.0293 C 231.38366,346.07405 231.41941,348.26244 231.31186,350.12795 C 231.31186,350.12795 217.78715,350.16372 217.78715,350.16372 z M 240.53168,322.61222 C 240.17293,322.61222 239.77825,322.68404 239.52706,322.57649 C 239.52706,322.57649 240.42391,320.45975 240.42391,320.45975 C 240.42391,320.45975 240.31638,320.3522 240.31638,320.3522 C 238.70203,319.88555 237.1236,319.3117 235.58088,318.66602 C 235.58088,318.66602 235.43743,318.73785 235.43743,318.73785 C 234.43299,319.84982 233.46431,321.06969 232.67501,322.28919 C 232.49564,322.89914 231.77814,322.54039 231.38366,322.61222 C 232.24464,321.03397 233.39253,319.63472 234.54054,318.19975 C 233.57191,317.62588 232.60338,316.97987 231.59876,316.51357 C 229.44631,318.16398 227.43749,320.31647 225.93069,322.57649 C 225.50014,322.64794 225.21322,322.61222 224.78264,322.57649 C 227.36567,318.48667 231.38366,314.89922 235.58088,312.78283 C 235.58088,312.78283 235.58088,312.81856 235.61681,312.81856 C 235.65271,312.81856 235.72436,312.74673 235.65271,312.71068 C 238.48675,311.31176 241.50015,310.30736 244.69295,309.87678 C 255.70649,308.40575 266.21758,313.1773 272.31627,322.57649 C 271.99362,322.61222 271.52695,322.61222 271.1682,322.57649 C 269.66175,320.38792 267.76011,318.2712 265.67948,316.62112 C 265.60766,316.51357 265.39256,316.54963 265.32073,316.65685 C 264.42388,317.23105 263.45518,317.69735 262.59443,318.2712 C 263.74248,319.67045 264.85443,321.06969 265.71556,322.61222 C 265.71556,322.61222 264.60323,322.61222 264.60323,322.61222 C 263.70638,321.28479 262.77381,319.88555 261.59001,318.7021 C 260.01141,319.34742 258.57643,319.92164 256.96209,320.3522 C 256.96209,320.3522 256.78271,320.49585 256.78271,320.49585 C 257.03391,321.21334 257.50019,321.89472 257.64384,322.61222 C 257.64384,322.61222 256.67516,322.61222 256.67516,322.61222 C 256.67516,322.61222 255.70649,320.67522 255.70649,320.67522 C 253.58974,321.14115 251.25792,321.3927 249.10562,321.53597 C 248.99787,321.859 249.14152,322.32529 248.99787,322.61222 C 248.99787,322.61222 248.06527,322.61222 248.06527,322.61222 C 247.99345,322.18165 248.17282,321.859 247.95757,321.49989 C 245.73345,321.3927 243.58098,321.14115 241.50015,320.71095 C 241.50015,320.71095 240.53168,322.61222 240.53168,322.61222 z M 248.06527,314.3611 C 247.3119,314.18175 246.48667,314.18175 245.76917,314.00237 C 244.29847,315.76 243.0786,317.66162 242.03825,319.63472 C 242.03825,319.63472 242.21763,319.77837 242.21763,319.77837 C 244.08318,320.1371 246.02037,320.42365 248.02939,320.42365 C 248.02939,320.42365 248.06527,314.3611 248.06527,314.3611 z M 255.13264,319.70617 C 255.13264,319.70617 255.16836,319.599 255.16836,319.599 C 254.16392,317.66162 252.90832,315.79608 251.54517,314.03843 C 250.93522,313.96628 250.36104,314.2178 249.75145,314.25353 C 249.75145,314.25353 249.14152,314.32502 249.14152,314.32502 C 249.0697,316.44175 249.03379,318.3073 249.14152,320.42365 C 251.18642,320.38792 253.23099,320.17282 255.13264,319.70617 z M 240.96203,319.38352 C 242.00238,317.41042 243.2939,315.5449 244.5854,313.67968 C 244.08318,313.39243 243.47327,313.21305 242.97105,312.92611 C 240.60328,314.10992 238.34328,315.76 236.44185,317.73307 C 236.44185,317.73307 236.44185,317.841 236.44185,317.841 C 237.8411,318.52273 239.3118,319.02477 240.81858,319.41962 C 240.81858,319.41962 240.96203,319.38352 240.96203,319.38352 z M 260.69316,317.87672 C 259.54511,316.54963 258.07404,315.40125 256.71089,314.4329 C 255.88584,313.93055 255.06081,313.39243 254.19969,312.9622 C 254.19969,312.9622 252.65716,313.64363 252.65716,313.64363 C 252.65716,313.64363 252.76471,313.89478 252.76471,313.89478 C 254.05641,315.65278 255.20409,317.4465 256.20886,319.34742 C 256.20886,319.34742 256.31641,319.41962 256.31641,319.41962 C 257.85894,319.06085 259.32964,318.55847 260.69316,317.87672 z M 264.53141,315.83215 C 262.52261,314.2178 260.19076,313.14158 257.82321,312.24471 C 257.82321,312.24471 256.13704,311.7066 256.13704,311.7066 C 255.85011,311.84988 255.59894,312.06533 255.34774,312.28043 C 255.34774,312.28043 255.41956,312.38798 255.41956,312.38798 C 257.71529,313.75118 259.79631,315.40125 261.76938,317.37432 C 262.73771,316.97987 263.67066,316.44175 264.53141,315.83215 z M 241.78728,312.28043 C 241.6079,312.06533 241.32078,311.84988 241.06978,311.7066 C 238.05618,312.49558 235.25806,313.85905 232.67501,315.72427 C 232.67501,315.72427 232.67501,315.83215 232.67501,315.83215 C 233.53614,316.37025 234.39711,316.94415 235.32986,317.3386 C 237.37461,315.29403 239.49115,313.75118 241.78728,312.28043 z M 254.63024,311.45508 C 254.73779,311.23993 254.45087,311.31176 254.37906,311.23993 C 250.57649,310.41491 246.34322,310.37883 242.54048,311.31176 C 242.46883,311.49113 242.71985,311.52723 242.82758,311.63443 C 246.16385,313.823 251.3658,313.823 254.63024,311.45508 z"
         style="fill:#2a3e92;fill-opacity:1;fill-rule:nonzero;stroke:none"
         id="path47" /></g><rect
       style="opacity:1;fill:none;fill-opacity:0.98717945;stroke:none;stroke-width:0.63436121;stroke-miterlimit:4;stroke-dasharray:none;stroke-opacity:1"
       id="rect2386"
       width="71.365639"
       height="71.365639"
       x="220.8488"
       y="-365.36157"
       transform="scale(1,-1)" /></g></svg>
